X: 1549
T: Angler's
R: jig
M: 6/8
K: Dmajor
|:dAF DFA|dAF DFA|GFG EFD|CDE A,FA|dAF DFA|dAF DFA|GFG A,EC|DEC D3:|
|:AFD AFD|BGD BGD|AFD AFD|GFG ECA,|AFD AFD|BGD BGD|AFD ECA,|DECD3||

